static/assets/images/icons/swapper.svg

<svg width="257" height="256" viewBox="0 0 257 256" fill="none" xmlns="http://www.w3.org/2000/svg">
<path d="M64.5091 166.263L57.7983 233.856C57.6617 235.232 58.3644 236.387 59.4035 237.016C59.4586 237.049 59.5147 237.081 59.5716 237.112L78.2237 207.473C77.4139 206.739 76.8916 205.683 76.9005 204.449C76.96 196.202 78.1715 169.591 78.1715 169.591L64.5091 166.263Z" fill="#477BFF"/>
<path d="M89.9036 65.9091L19.6054 59.5569C17.9027 59.4031 16.5328 60.4309 16.0403 61.7859L46.3974 79.7997C47.1502 78.8241 48.3558 78.1688 49.7953 78.1799C58.3498 78.2456 73.3952 78.4943 86.2754 79.3969L89.9036 65.9091Z" fill="#477BFF"/>
<path d="M192.122 90.5923L198.645 22.1821C198.782 20.7387 197.998 19.5413 196.873 18.9401L178.194 48.621C178.995 49.3564 179.51 50.4092 179.498 51.6373C179.423 59.9712 178.201 87.028 178.201 87.028L192.122 90.5923Z" fill="#477BFF"/>
<path d="M166.51 190.158L236.844 196.513C238.328 196.647 239.56 195.884 240.178 194.788L209.649 176.672C208.897 177.42 207.838 177.897 206.609 177.887C198.012 177.821 169.951 176.657 169.951 176.657L166.51 190.158Z" fill="#477BFF"/>
<path fill-rule="evenodd" clip-rule="evenodd" d="M128.326 58.1995L193.415 19.0295C194.56 18.3403 195.856 18.3966 196.873 18.9401L178.194 48.621C176.963 47.4914 175.057 47.1107 173.344 47.9941C165.329 52.127 150.969 59.7292 139.097 67.0813L128.326 58.1995ZM190.369 137.48L199.384 126.65L240.094 191.44C240.792 192.551 240.733 193.804 240.178 194.788L209.649 176.672C210.842 175.486 211.262 173.617 210.364 171.931C206.115 163.956 190.369 137.48 190.369 137.48ZM128.088 197.868L117.183 189.068C105.328 196.4 91.0334 203.967 83.0517 208.082C81.3484 208.96 79.4541 208.589 78.2237 207.473L59.5716 237.112C60.5881 237.654 61.8822 237.71 63.0269 237.021L128.088 197.868ZM65.6478 117.872L56.7075 128.248L16.3631 64.6424C15.7722 63.7108 15.7163 62.6775 16.0403 61.7859L46.3974 79.7997C45.4877 80.9786 45.2394 82.6252 46.0391 84.1284C50.2256 91.9973 65.6478 117.872 65.6478 117.872Z" fill="#5E95FF"/>
<path d="M177.063 98.2228C176.918 111.141 178.9 119.047 185.46 130.28C187.173 133.214 190.369 137.48 190.369 137.48L199.384 126.65C178.366 125.641 173.05 99.2451 192.122 90.5923L178.201 87.028C178.201 87.028 177.112 93.8299 177.063 98.2228Z" fill="#8FAEFF"/>
<path d="M96.9408 80.3773C111.083 80.6001 119.774 78.5169 132.029 71.6453C134.899 70.0357 136.604 68.6251 139.097 67.0813L128.326 58.1995C126.726 76.7171 97.986 84.2853 89.9036 65.9091L86.2754 79.3969C88.8952 79.5805 92.7577 80.3114 96.9408 80.3773Z" fill="#8FAEFF"/>
<path d="M79.2852 158.948C79.5787 145.149 77.4379 136.64 70.3275 124.697C68.6769 121.925 65.6478 117.872 65.6478 117.872L56.7075 128.248C75.7637 129.546 83.3978 157.901 64.5091 166.263L78.1715 169.591C78.1715 169.591 79.1964 163.125 79.2852 158.948Z" fill="#8FAEFF"/>
<path d="M159.473 175.69C145.331 175.448 136.648 177.565 124.385 184.422C121.459 186.058 119.725 187.497 117.183 189.068L128.088 197.868C129.557 179.238 158.428 171.782 166.51 190.158L169.951 176.657C169.951 176.657 163.583 175.76 159.473 175.69Z" fill="#8FAEFF"/>
<path fill-rule="evenodd" clip-rule="evenodd" d="M156.357 120.754C160.523 135.88 151.297 151.427 135.75 155.48C120.204 159.533 104.225 150.557 100.059 135.431C95.8934 120.306 105.119 104.758 120.665 100.705C136.212 96.6523 152.191 105.629 156.357 120.754ZM133.43 147.053C144.193 144.248 150.58 133.484 147.696 123.012C144.812 112.541 133.749 106.326 122.986 109.132C112.223 111.938 105.836 122.702 108.72 133.173C111.604 143.645 122.667 149.859 133.43 147.053Z" fill="#477BFF"/>
<path fill-rule="evenodd" clip-rule="evenodd" d="M175.22 56.9511C175.242 54.4497 172.545 52.8512 170.279 54.032C164.929 56.8191 144.732 68.8822 130.691 77.3226C121.496 82.85 110.777 85.4533 99.9909 84.7765C83.8475 83.7634 60.9406 82.3838 55.2837 82.3428C52.7279 82.3242 51.0887 84.9208 52.2771 87.1224C55.1305 92.4081 67.4948 112.426 76.0138 126.131C81.4426 134.866 84.0291 144.97 83.4354 155.161C82.5185 170.902 81.2441 193.617 81.1941 199.115C81.1713 201.616 83.8669 203.217 86.1331 202.036C91.4355 199.274 111.269 187.231 125.25 178.679C134.643 172.933 145.672 170.253 156.738 171.029C172.902 172.163 195.53 173.684 201.137 173.724C203.691 173.743 205.33 171.148 204.146 168.946C201.286 163.626 189.004 144.208 180.35 130.635C174.611 121.633 171.91 111.121 172.632 100.551C173.709 84.7874 175.172 62.4656 175.22 56.9511ZM137.362 161.332C156.23 156.414 167.427 137.544 162.372 119.186C157.316 100.829 137.922 89.9343 119.054 94.8532C100.186 99.7721 88.9885 118.642 94.0442 136.999C99.0999 155.357 118.494 166.251 137.362 161.332Z" fill="#1543D8"/>
<path fill-rule="evenodd" clip-rule="evenodd" d="M147.696 123.012C150.58 133.484 144.193 144.248 133.43 147.053C122.667 149.859 111.604 143.645 108.72 133.173C105.836 122.702 112.223 111.938 122.986 109.132C133.749 106.326 144.812 112.541 147.696 123.012ZM132.721 144.479C142.022 142.054 147.542 132.752 145.049 123.702C142.557 114.653 132.997 109.282 123.695 111.707C114.394 114.132 108.874 123.434 111.367 132.483C113.859 141.533 123.419 146.903 132.721 144.479Z" fill="#8FAEFF"/>
<path fill-rule="evenodd" clip-rule="evenodd" d="M159.244 120.002C163.837 136.679 153.665 153.821 136.524 158.289C119.383 162.758 101.765 152.861 97.1719 136.184C92.5791 119.507 102.751 102.365 119.892 97.8963C137.033 93.4277 154.651 103.325 159.244 120.002ZM135.75 155.48C151.297 151.427 160.523 135.88 156.357 120.754C152.191 105.629 136.212 96.6523 120.665 100.705C105.119 104.758 95.8934 120.306 100.059 135.431C104.225 150.557 120.204 159.533 135.75 155.48Z" fill="#477BFF"/>
<path fill-rule="evenodd" clip-rule="evenodd" d="M124.385 184.422C136.648 177.565 145.331 175.448 159.473 175.69C163.583 175.76 169.951 176.657 169.951 176.657C169.951 176.657 198.012 177.821 206.609 177.887C207.838 177.897 208.897 177.42 209.649 176.672C210.842 175.486 211.262 173.617 210.364 171.931C206.115 163.956 190.369 137.48 190.369 137.48C190.369 137.48 187.173 133.214 185.46 130.28C178.9 119.047 176.918 111.141 177.063 98.2228C177.112 93.8299 178.201 87.028 178.201 87.028C178.201 87.028 179.423 59.9712 179.498 51.6373C179.51 50.4092 178.995 49.3564 178.194 48.621C176.963 47.4914 175.057 47.1107 173.344 47.9941C165.329 52.127 150.969 59.7292 139.097 67.0813C136.604 68.6251 134.899 70.0357 132.029 71.6453C119.774 78.5169 111.083 80.6001 96.9408 80.3773C92.7577 80.3114 88.8952 79.5805 86.2754 79.3969C73.3952 78.4943 58.3498 78.2456 49.7953 78.1799C48.3558 78.1688 47.1502 78.8241 46.3974 79.7997C45.4877 80.9786 45.2394 82.6252 46.0391 84.1284C50.2256 91.9973 65.6478 117.872 65.6478 117.872C65.6478 117.872 68.6769 121.925 70.3275 124.697C77.4379 136.64 79.5787 145.149 79.2852 158.948C79.1964 163.125 78.1715 169.591 78.1715 169.591C78.1715 169.591 76.96 196.202 76.9005 204.449C76.8916 205.683 77.4139 206.739 78.2237 207.473C79.4541 208.589 81.3484 208.96 83.0517 208.082C91.0334 203.967 105.328 196.4 117.183 189.068C119.725 187.497 121.459 186.058 124.385 184.422ZM180.35 130.635C174.611 121.633 171.91 111.121 172.632 100.551C173.709 84.7874 175.172 62.4656 175.22 56.9511C175.242 54.4497 172.545 52.8512 170.279 54.032C164.929 56.8191 144.732 68.8822 130.691 77.3226C121.496 82.85 110.777 85.4533 99.9909 84.7765C83.8475 83.7634 60.9406 82.3838 55.2837 82.3428C52.7279 82.3242 51.0887 84.9208 52.2771 87.1224C55.1305 92.4081 67.4948 112.426 76.0138 126.131C81.4426 134.866 84.0291 144.97 83.4354 155.161C82.5185 170.902 81.2441 193.617 81.1941 199.115C81.1713 201.616 83.8669 203.217 86.1331 202.036C91.4355 199.274 111.269 187.231 125.25 178.679C134.643 172.933 145.672 170.253 156.738 171.029C172.902 172.163 195.53 173.684 201.137 173.724C203.691 173.743 205.33 171.148 204.146 168.946C201.286 163.626 189.004 144.208 180.35 130.635Z" fill="#8FAEFF"/>
<path fill-rule="evenodd" clip-rule="evenodd" d="M162.372 119.186C167.427 137.544 156.23 156.414 137.362 161.332C118.494 166.251 99.0999 155.357 94.0442 136.999C88.9885 118.642 100.186 99.7721 119.054 94.8532C137.922 89.9343 157.316 100.829 162.372 119.186ZM136.524 158.289C153.665 153.821 163.837 136.679 159.244 120.002C154.651 103.325 137.033 93.4277 119.892 97.8963C102.751 102.365 92.5791 119.507 97.1719 136.184C101.765 152.861 119.383 162.758 136.524 158.289Z" fill="#8FAEFF"/>
</svg>

<svg xmlns="http://www.w3.org/2000/svg" fill="none" viewBox="0 0 257 256"><path fill="#477BFF" d="m64.51 166.263-6.712 67.593c-.136 1.376.566 2.531 1.605 3.16q.084.05.169.096l18.652-29.639a4 4 0 0 1-1.324-3.024c.06-8.247 1.271-34.858 1.271-34.858zM89.904 65.91l-70.299-6.353a3.424 3.424 0 0 0-3.565 2.229L46.397 79.8c.753-.976 1.959-1.631 3.398-1.62 8.555.066 23.6.314 36.48 1.217zm102.218 24.682 6.523-68.41c.137-1.443-.647-2.64-1.772-3.242l-18.679 29.681a4 4 0 0 1 1.304 3.016c-.075 8.334-1.297 35.391-1.297 35.391zm-25.612 99.566 70.334 6.355a3.43 3.43 0 0 0 3.334-1.725l-30.529-18.116c-.752.748-1.811 1.225-3.04 1.215-8.597-.066-36.658-1.23-36.658-1.23z"/><path fill="#5E95FF" fill-rule="evenodd" d="m128.326 58.2 65.089-39.17a3.47 3.47 0 0 1 3.458-.09l-18.679 29.681a4.26 4.26 0 0 0-4.85-.627c-8.015 4.133-22.375 11.735-34.247 19.087zm62.043 79.28 9.015-10.83 40.71 64.79a3.22 3.22 0 0 1 .084 3.348l-30.529-18.116c1.193-1.186 1.613-3.055.715-4.741-4.249-7.975-19.995-34.451-19.995-34.451m-62.281 60.388-10.905-8.8c-11.855 7.332-26.15 14.899-34.131 19.014a4.25 4.25 0 0 1-4.828-.609l-18.652 29.639a3.47 3.47 0 0 0 3.455-.091zm-62.44-79.996-8.94 10.376-40.345-63.606a3.21 3.21 0 0 1-.323-2.856L46.397 79.8a3.96 3.96 0 0 0-.358 4.328c4.187 7.87 19.609 33.744 19.609 33.744" clip-rule="evenodd"/><path fill="#8FAEFF" d="M177.063 98.223c-.145 12.918 1.837 20.824 8.397 32.057 1.713 2.934 4.909 7.2 4.909 7.2l9.015-10.83c-21.018-1.009-26.334-27.405-7.262-36.058l-13.921-3.564s-1.089 6.802-1.138 11.195M96.94 80.377c14.143.223 22.834-1.86 35.089-8.732 2.87-1.61 4.575-3.02 7.068-4.564L128.326 58.2c-1.6 18.518-30.34 26.086-38.422 7.71l-3.629 13.488c2.62.183 6.483.914 10.666.98m-17.656 78.57c.294-13.799-1.847-22.308-8.957-34.251-1.651-2.772-4.68-6.825-4.68-6.825l-8.94 10.376c19.056 1.298 26.69 29.653 7.801 38.015l13.662 3.328s1.025-6.466 1.114-10.643m80.188 16.742c-14.142-.242-22.825 1.875-35.088 8.732-2.926 1.636-4.66 3.075-7.202 4.646l10.905 8.8c1.469-18.63 30.34-26.086 38.422-7.71l3.441-13.501s-6.368-.897-10.478-.967"/><path fill="#477BFF" fill-rule="evenodd" d="M156.357 120.754c4.166 15.126-5.06 30.673-20.607 34.726-15.546 4.053-31.525-4.923-35.691-20.049s5.06-30.673 20.606-34.726 31.526 4.924 35.692 20.049m-22.927 26.299c10.763-2.805 17.15-13.569 14.266-24.041s-13.947-16.686-24.71-13.88-17.15 13.57-14.266 24.041 13.947 16.686 24.71 13.88" clip-rule="evenodd"/><path fill="#1543D8" fill-rule="evenodd" d="M175.22 56.951c.022-2.501-2.675-4.1-4.941-2.919-5.35 2.787-25.547 14.85-39.588 23.29-9.195 5.528-19.914 8.131-30.7 7.454-16.144-1.013-39.05-2.392-44.707-2.433-2.556-.019-4.195 2.578-3.007 4.78 2.853 5.285 15.218 25.303 23.737 39.008 5.429 8.735 8.015 18.839 7.421 29.03-.916 15.741-2.19 38.456-2.24 43.954-.024 2.501 2.672 4.102 4.938 2.921 5.303-2.762 25.136-14.805 39.117-23.357 9.393-5.746 20.422-8.426 31.488-7.65 16.164 1.134 38.792 2.655 44.399 2.695 2.554.019 4.193-2.576 3.009-4.778-2.86-5.32-15.142-24.738-23.796-38.311-5.739-9.002-8.44-19.514-7.718-30.084 1.077-15.764 2.54-38.085 2.588-43.6m-37.858 104.381c18.868-4.918 30.065-23.788 25.01-42.146-5.056-18.357-24.45-29.252-43.318-24.333S88.989 118.642 94.044 137c5.056 18.358 24.45 29.252 43.318 24.333" clip-rule="evenodd"/><path fill="#8FAEFF" fill-rule="evenodd" d="M147.696 123.012c2.884 10.472-3.503 21.236-14.266 24.041-10.763 2.806-21.826-3.408-24.71-13.88-2.884-10.471 3.503-21.235 14.266-24.041s21.826 3.409 24.71 13.88m-14.975 21.467c9.301-2.425 14.821-11.727 12.328-20.777-2.492-9.049-12.052-14.42-21.354-11.995s-14.821 11.727-12.328 20.776c2.492 9.05 12.052 14.42 21.354 11.996" clip-rule="evenodd"/><path fill="#477BFF" fill-rule="evenodd" d="M159.244 120.002c4.593 16.677-5.579 33.819-22.72 38.287-17.141 4.469-34.759-5.428-39.352-22.105s5.579-33.819 22.72-38.288 34.759 5.429 39.352 22.106M135.75 155.48c15.547-4.053 24.773-19.6 20.607-34.726s-20.145-24.102-35.692-20.049c-15.546 4.053-24.772 19.601-20.606 34.726s20.145 24.102 35.691 20.049" clip-rule="evenodd"/><path fill="#8FAEFF" fill-rule="evenodd" d="M124.385 184.422c12.263-6.857 20.946-8.974 35.088-8.732 4.11.07 10.478.967 10.478.967s28.061 1.164 36.658 1.23c1.229.01 2.288-.467 3.04-1.215 1.193-1.186 1.613-3.055.715-4.741-4.249-7.975-19.995-34.451-19.995-34.451s-3.196-4.266-4.909-7.2c-6.56-11.233-8.542-19.139-8.397-32.057.049-4.393 1.138-11.195 1.138-11.195s1.222-27.057 1.297-35.39a4 4 0 0 0-1.304-3.017 4.26 4.26 0 0 0-4.85-.627c-8.015 4.133-22.375 11.735-34.247 19.087-2.493 1.544-4.198 2.955-7.068 4.564-12.255 6.872-20.946 8.955-35.088 8.732-4.183-.066-8.046-.796-10.666-.98-12.88-.903-27.925-1.151-36.48-1.217-1.44-.011-2.645.644-3.398 1.62a3.96 3.96 0 0 0-.358 4.328c4.187 7.87 19.609 33.744 19.609 33.744s3.029 4.053 4.68 6.825c7.11 11.943 9.25 20.452 8.957 34.251-.089 4.177-1.114 10.643-1.114 10.643s-1.211 26.611-1.27 34.858a4 4 0 0 0 1.323 3.024 4.25 4.25 0 0 0 4.828.609c7.981-4.115 22.276-11.682 34.131-19.014 2.542-1.571 4.276-3.01 7.202-4.646m55.965-53.787c-5.739-9.002-8.44-19.514-7.718-30.084 1.077-15.764 2.54-38.085 2.588-43.6.022-2.501-2.675-4.1-4.941-2.919-5.35 2.787-25.547 14.85-39.588 23.29-9.195 5.528-19.914 8.131-30.7 7.454-16.144-1.013-39.05-2.392-44.707-2.433-2.556-.019-4.195 2.578-3.007 4.78 2.853 5.285 15.218 25.303 23.737 39.008 5.429 8.735 8.015 18.839 7.421 29.03-.916 15.741-2.19 38.456-2.24 43.954-.024 2.501 2.672 4.102 4.938 2.921 5.303-2.762 25.136-14.805 39.117-23.357 9.393-5.746 20.422-8.426 31.488-7.65 16.164 1.134 38.792 2.655 44.399 2.695 2.554.019 4.193-2.576 3.009-4.778-2.86-5.32-15.142-24.738-23.796-38.311" clip-rule="evenodd"/><path fill="#8FAEFF" fill-rule="evenodd" d="M162.372 119.186c5.055 18.358-6.142 37.228-25.01 42.146-18.868 4.919-38.262-5.975-43.318-24.333s6.142-37.227 25.01-42.146 38.262 5.976 43.318 24.333m-25.848 39.103c17.141-4.468 27.313-21.61 22.72-38.287s-22.211-26.574-39.352-22.106c-17.141 4.469-27.313 21.611-22.72 38.288s22.211 26.574 39.352 22.105" clip-rule="evenodd"/></svg>
